X:278
T:Lonesome Fiddle blues
C:Vasser Clenents
N: Arr. Coleman Stuart Transcribed by James Stuart
R:bluegrass
L:1/8
Q:1/4=230
M:4/4
K:F
z4 DA, =B,_D | "Dm"D2 DE FE FG | AB AG FE D=B, | "C"C=B, CD ED EF | GA GF ED CE | 
"Dm"D2 DE FE FG | AB AG FE D2 | dc Ad "C"cA Gc | "A7"AG FG "Dm"D4 | "G"G,2 G,A, =B,C DE | 
FE DF ED =B,G, | "D"A,=B, DE _GA =BA | _Gd zG d4 | "E"ee e_g ee e=g | g_a ed =Be3 | 
"A"ag ea ge dg | "A7"ed c=B A4 | "Dm"g_a =a_a ga =a_a | g_a =a_a ga =a_a | "C"g_a =ag fg fd | 
gf dc Ad cA | "Dm"dc AG cA GF | GD ED ED FE | DF ED C"C"G, A,G, | "A7"A,2 C2 "Dm"D4 | 


